packages/icon/src/svg/pause.icon.svg

<svg width="24" height="24" viewBox="0 0 24 24" fill="none" xmlns="http://www.w3.org/2000/svg">
<path fill-rule="evenodd" clip-rule="evenodd" d="M14.5 19H17.5C17.7761 19 18 18.7761 18 18.5V5.5C18 5.22386 17.7761 5 17.5 5H14.5C14.2239 5 14 5.22386 14 5.5V18.5C14 18.7761 14.2239 19 14.5 19ZM10 18.5C10 18.7761 9.77614 19 9.5 19H6.5C6.22386 19 6 18.7761 6 18.5V5.5C6 5.22386 6.22386 5 6.5 5H9.5C9.77614 5 10 5.22386 10 5.5V18.5Z" fill="white"/>
</svg>

<svg aria-label="pause icon" viewBox="0 0 24 24"><path fill-rule="evenodd" clip-rule="evenodd" d="M14.5 19h3a.5.5 0 00.5-.5v-13a.5.5 0 00-.5-.5h-3a.5.5 0 00-.5.5v13a.5.5 0 00.5.5zm-4.5-.5a.5.5 0 01-.5.5h-3a.5.5 0 01-.5-.5v-13a.5.5 0 01.5-.5h3a.5.5 0 01.5.5v13z"/></svg>
